X: 5
T: Girl Of The House, The
Z: zoronic
S: https://thesession.org/tunes/1214#setting24641
R: jig
M: 6/8
L: 1/8
K: Dmix
|:AG|FAD DAG|AFA GEA|DED AGE|FAD DAG|
EFF GFG|GAA c2A|dcA GEA|DED D :|
|:AB|Bcc cAG|FGA GFG|AdB cAG|Ad^c dag|
fed cAG|EFA GED|dcA GEA|DED D :|
